X:97
T:Blaydon Races
C:Traditional English
S:Colin Hume's website,  colinhume.com  - chords can also be printed below the stave.
Q:3/8=120
M:6/8
R:Jig
L:1/8
K:G
D | "G"G2G G2G | "/"G2G G2G | "D7"A2A A2A | "G"B3 "G7"G3 |\
"C"c2c c2c | "G"B2B B3 | "A7"A2B A2G | "D7"F3 D3 |
"G"G2G G2G | "/"G2G G2G | "D7"A2A A2A | "G"B3 "G7"G3 |\
"C"c2c c2c | "G"B2c d2d | "D7"d2c B2A | "G"G3 B2c |
"G"d3- d2B | G3- G2G | "D7"A2A A2A | "G"B3 G3 |\
"C"c2c c2c | "G"B2B B3 | "A7"A2B A2G | "D7"F3 D3 |
"G"G2G G2G | "/"G2G G2G | "D7"A2A A2A | "G"B3 "G7"G3 |\
"C"c2c c2c | "G"B2c d2d | "D7"d2c B2A | "G"G3 G3 |]

